X:1
T:Old Hundred
M:4/4
L:1/4
K:A
 A| A G F E| A B c c| c c B A| d c B| A| B c BA/2-G/2| F G A e| c A B d|\
 c B A||
